X: 247
T: Qinxuemei Shangfen
%%abc-version 2.0
%%abcx-abcm2ps-target-version 5.9.1 (29 Sep 2008)
%%abc-creator hum2abc beta
%%abcx-conversion-date 2013/10/02 07:52:29
%%abc-edited-by Helmut Schaffrath
%%humdrum-veritas 2877491661
%%humdrum-veritas-data 1438003423
%%continueall 1
%%barnumbers 0
L: 1/8
M: 4/4
K: G
e> d B dA4 [I:setbarnb 1]| 
e> d B d2<A2B | 
G2>E2d3B | 
A> B D EG4 | 
B2B d e g e d | 
G A d B2<A2B | 
D D D E B> A G F | 
E> D E GD4 |]  



